!! 00000] TT[WS
!!!OTL: Sheng ge
!!!ARE: Asia, China, Shanxi Puxian
!! Ethnic Group: Han
!! WII, 180 (2)
!!!SCT: J0675
!!!YEM: Copyright 1995, estate of Helmut Schaffrath.
**kern
*ICvox
*Ivox
*M2/4
*k[f#c#]
*D:
{[2ee
=1
2ee]
=2
8ee
16dd
16ee
8dd
16b
16a
=3
2a}
=4
{4.ee
8dd
=5
4dd
8b
8a
=6
8.dd
16ee
8b
8a
=7
4a
4r}
=8
{4ee
4dd
=9
4dd
8b
8a
=10
8dd
8ee
8b
8a
=11
4a
4r}
=12
{8ee
8ee
8ee
16cc#
16dd
=13
8ee
8ee
16ee
16dd
8r
=14
4dd
4r
=15
8dd
8ee
8b
8a
=16
4a
4r}
=17
{4dd
8b
8a
=18
4a
4r
=19
8dd
8ee
8b
8a
=20
4a
4r}
=21
{8.ee
16ee
8ee
8dd
=22
4dd
8b
8a
=23
8.dd
16b
8b
8a
=24
4a
4r}
==
!!!AGN: Xiaodiao. Fengsuge, Zongjiao
!! Religionlied
!!!ONB: ESAC (Essen Associative Code) Database: CHINA
!!!AMT: simple duple
!!!AIN: vox
!!!EED: Helmut Schaffrath
!!!EEV: 1.0
*-
!!!ONB: Tied note syntax fixed by Craig Sapp, 2004/05/03/
